X:17
T:Ode to Whiskey
Z: id:dc-ocarolan-11
M:6/8
L:1/8
K:D Major
d|dcB ABG|F2D DEF|GAB Bcd|cec A2d|!
dcB ABG|F2D DFA|Bed cBc|d3 d2:|!
e|f2d g2e|f2d Bcd|efd cdB|A2F F2e|!
f2d g2e|a2f dcd|Bed cBc|d3 d2:|!

